X:62
T:GOTOKIE- Gae to the ky wi' me, Johnny.
S:SMM #135 from D. Dow's
N:'A Collection of Ancient Scottish Music', p. 42, c 1775.
Q:1/4=120
L:1/8
M:9/8
K:Dm
f|c A AA2G F D D|c A AA2c d2 f|c A A A2G F G A|A G F G A c d2||\
c|A c d f3/2 g/ f e d c|A c d f3/2 g/ e f2 c|\
A c d f3/2 g/ f e d c|d c A GA c d2||\
"Chorus"f|c A AA2G F D D|c A AA2c d2f|\
c A AA2G F G A|A G F G A cd2|]

